web/ui/src/assets/svgs/nav/top/down.svg

<svg height="16" viewBox="0 0 16 16" width="16" xmlns="http://www.w3.org/2000/svg"><g fill="none" fill-rule="evenodd" transform="matrix(1 0 0 -1 0 16)"><path d="m0 0h16v16.410256h-16z" fill="#000" opacity="0"/><path d="m8 5.64841026 5.2464 5.38092304c.1952879.2002953.5119121.2002953.7072 0 .1952879-.2002952.1952879-.525038 0-.7253333l-5.544-5.68615385c-.22647617-.23214519-.59352383-.23214519-.82 0l-5.5432 5.68615385c-.12632911.1295683-.17566625.3184183-.12942658.4954119.04623966.1769936.18103122.3152413.3536.3626666.17256877.0474253.35669747-.0031768.48302658-.1327452z" fill="#595959"/></g></svg>

<?xml version="1.0" encoding="UTF-8"?>
<svg width="16px" height="16px" viewBox="0 0 16 16" version="1.1" xmlns="http://www.w3.org/2000/svg" xmlns:xlink="http://www.w3.org/1999/xlink">
    <title>分组</title>
    <g id="页面-1" stroke="none" stroke-width="1" fill="none" fill-rule="evenodd">
        <g id="系统设计规范" transform="translate(-1377.000000, -5363.000000)">
            <g id="分组" transform="translate(1385.000000, 5370.500000) scale(1, -1) translate(-1385.000000, -5370.500000) translate(1377.000000, 5362.000000)">
                <rect id="矩形" fill="#000000" opacity="0" x="0" y="0" width="16" height="16.4102564"></rect>
                <path d="M8,5.64841026 L13.2464,11.0293333 C13.4416879,11.2296286 13.7583121,11.2296286 13.9536,11.0293333 C14.1488879,10.8290381 14.1488879,10.5042953 13.9536,10.304 L8.4096,4.61784615 C8.18312383,4.38570096 7.81607617,4.38570096 7.5896,4.61784615 L2.0464,10.304 C1.92007089,10.4335683 1.87073375,10.6224183 1.91697342,10.7994119 C1.96321308,10.9764055 2.09800464,11.1146532 2.27057342,11.1620785 C2.44314219,11.2095038 2.62727089,11.1589017 2.7536,11.0293333 L8,5.64841026 Z" id="路径" fill="#595959"></path>
            </g>
        </g>
    </g>
</svg>
